COLOR/action 16/16/distribute-horizontal-gaps.svg

<svg height="16" viewBox="0 0 16 16" width="16" xmlns="http://www.w3.org/2000/svg"><g transform="matrix(.68181818 0 0 -.68181818 -.181818 17.954545)"><path d="m10 8h-2.25-6.75v13h2.25 6.75v-2.166668z" fill="#1a7fd4" stroke-width="2.20794"/><path d="m14 18h-1.5v-7h1.5z" fill="#e95420" stroke-width=".810093"/><path d="m23 21h-2.25-6.75v-13h2.25 6.75v2.166667z" fill="#1a7fd4" stroke-width="2.20794"/><path d="m11.5 18h-1.5v-7h1.5z" fill="#e95420" stroke-width=".810093"/></g></svg>

<?xml version="1.0" encoding="UTF-8" standalone="no"?>
<svg
   xmlns:dc="http://purl.org/dc/elements/1.1/"
   xmlns:cc="http://creativecommons.org/ns#"
   xmlns:rdf="http://www.w3.org/1999/02/22-rdf-syntax-ns#"
   xmlns:svg="http://www.w3.org/2000/svg"
   xmlns="http://www.w3.org/2000/svg"
   xmlns:sodipodi="http://sodipodi.sourceforge.net/DTD/sodipodi-0.dtd"
   xmlns:inkscape="http://www.inkscape.org/namespaces/inkscape"
   viewBox="0 0 16 16"
   version="1.1"
   id="svg12"
   sodipodi:docname="distribute-horizontal-gaps.svg"
   width="16"
   height="16"
   inkscape:version="0.92.4 (5da689c313, 2019-01-14)">
  <metadata
     id="metadata18">
    <rdf:RDF>
      <cc:Work
         rdf:about="">
        <dc:format>image/svg+xml</dc:format>
        <dc:type
           rdf:resource="http://purl.org/dc/dcmitype/StillImage" />
        <dc:title></dc:title>
      </cc:Work>
    </rdf:RDF>
  </metadata>
  <defs
     id="defs16" />
  <sodipodi:namedview
     pagecolor="#ffffff"
     bordercolor="#666666"
     borderopacity="1"
     objecttolerance="10"
     gridtolerance="10"
     guidetolerance="10"
     inkscape:pageopacity="0"
     inkscape:pageshadow="2"
     inkscape:window-width="1920"
     inkscape:window-height="1016"
     id="namedview14"
     showgrid="false"
     inkscape:zoom="9.8333333"
     inkscape:cx="12"
     inkscape:cy="12"
     inkscape:window-x="0"
     inkscape:window-y="27"
     inkscape:window-maximized="1"
     inkscape:current-layer="svg12" />
  <g
     transform="matrix(0.68181818,0,0,-0.68181818,-0.18181818,17.954545)"
     id="g10">
    <path
       d="M 10,8 H 7.75 1 V 21 H 3.25 10 v -2.166668 z"
       id="path2"
       inkscape:connector-curvature="0"
       style="fill:#1a7fd4;stroke-width:2.2079401" />
    <path
       d="M 14,18 H 12.5 V 11 H 14 Z"
       id="path4"
       inkscape:connector-curvature="0"
       style="fill:#e95420;stroke-width:0.81009299" />
    <path
       d="M 23,21 H 20.75 14 V 8 H 16.25 23 v 2.166667 z"
       id="path6"
       inkscape:connector-curvature="0"
       style="fill:#1a7fd4;stroke-width:2.2079401" />
    <path
       d="M 11.5,18 H 10 v -7 h 1.5 z"
       id="path8"
       inkscape:connector-curvature="0"
       style="fill:#e95420;stroke-width:0.81009299" />
  </g>
</svg>
